svg/dimmer.svg

<svg xmlns="http://www.w3.org/2000/svg" width="24" height="24" viewBox="0 0 24 24"><title>dimmer</title><path d="M13 5h-2v7H9v2h6v-2h-2zM11 15h2v4h-2z"/><path d="M5 3a2 2 0 0 1 2-2h10a2 2 0 0 1 2 2v18a2 2 0 0 1-2 2H7a2 2 0 0 1-2-2zm2 0h10v18H7z" fill-rule="evenodd"/></svg>

<svg xmlns="http://www.w3.org/2000/svg" width="24" height="24" viewBox="0 0 24 24"><title>dimmer</title><path d="M13,5H11v7H9v2h6V12H13Z" /><path d="M11,15h2v4H11Z" /><path d="M5,3A2,2,0,0,1,7,1H17a2,2,0,0,1,2,2V21a2,2,0,0,1-2,2H7a2,2,0,0,1-2-2ZM7,3H17V21H7Z" fill-rule="evenodd"/></svg>
